X:1
T:Title
%%score { 1 | 2 }
L:1/8
M:3/4
K:G
V:1 treble nm="Grand Piano"
V:2 bass 
V:1
 z2 z2[Q:1/4=100] D>D | G3 G [FA]>[FA] | [GB]2 [Gd]2 [Ge]>[Ge] | [Gd]3 [DGB] [DGB]>[DG] | %4
[M:2/4] [DFA]4 |[M:1/4] D>D |[M:3/4] G3 G [FA]>[FA] | [GB]2 [Gd]2 [Gc][Ge] | [Gd]3 [GB] [FA]>[FB] | %9
[M:2/4] G4 |[M:1/4] G>G |[M:3/4] [Ge]3 [Ge] [Gc]>[Ge] | d2 d2 B>c | d3 B [Ac]>[GB] |[M:2/4] [FA]4 | %15
[M:1/4] D>D |[M:3/4] G3 G [FA]>[FA] | [GB]2 [Gd]2 [EGc][Ge] | %18
 [Gd]3 [GB] [GB]>[FA][Q:1/4=99][Q:1/4=97][Q:1/4=96][Q:1/4=94][Q:1/4=93][Q:1/4=91][Q:1/4=90][Q:1/4=88][Q:1/4=87][Q:1/4=85][Q:1/4=84][Q:1/4=82][Q:1/4=81][Q:1/4=79][Q:1/4=78][Q:1/4=76] | %19
[M:2/4] G4 |] %20
V:2
 z2 z2 [G,B,]>[G,B,] | [G,B,D]3 [G,B,D] [D,D]>[D,D] | [G,D]2 [G,B,]2 [C,C]>[C,C] | %3
 [G,B,]3 G, G,>B,, |[M:2/4] D,4 |[M:1/4] [G,B,]>[G,B,] |[M:3/4] [G,B,D]3 [G,B,D] [D,D]>[D,D] | %7
 [G,D]2 [G,B,]2 [E,C][C,C] | [D,B,]3 [D,D] [D,C]>[D,D] |[M:2/4] [G,B,]4 |[M:1/4] [G,B,]>[G,B,] | %11
[M:3/4] [C,C]3 [C,C] [E,C]>[C,C] | [G,B,G]2 [G,B,G]2 [G,D]>[G,A,D] | %13
 [G,B,G]3 [G,DG][K:bass] [F,D]>[G,D] |[M:2/4] [D,D]4 |[M:1/4] [G,B,]>[G,B,] | %16
[M:3/4] [G,B,D]3 [G,B,D] [D,D]>[D,D] | [G,D]2 [G,B,]2 C,[C,C] | [D,B,]3 [D,D] [D,D]>[D,C] | %19
[M:2/4] [G,B,]4 |] %20

